X:1
T:Whiskey O (John, Rise Her Up)
M:4/4
L:1/4
K:C
 G G G G| A G E2| G G G G| A G E2| E G G2| E D C G| C3/2 E/2 G E| E D C2|\
 C E G c| A F G2| c3/2 A/2 G E| G E C c| C3/2 E/2 G E| E D C2|

